X: 452
T: A Dance for Natalie
C: Bert Murray
R: jig
B: Bert Murray's "Bon Accord Collection" 1999 p.45
%
Z: 2011 John Chambers <jc:trillian.mit.edu>
N: This tune was written for Natalie McMaster from Cape Breton.
M: 6/8
L: 1/8
K: F
|:\
vAcA FAF | CFC (A,2B,) | CDE FGA | cBA (B2A) |\
GBG EGE | CCC (C2A,) | CEG BAG |1 A3 (c2B) :|2 F3 (F2A) |
cAc fcf | a2f c2A | FAc cBA | B3 (B2A) |\
GBG EGE | CCC (C2A,) | CEG GAB | dcB (A2B) |
cAc fcf | a2f c2A | FAc cBA | B3 (B2A) |\
GBG EGE | CCC (C2A,) | CEG BAG | F3 F3 |]
%%text Repeat in the key of G
